X:1
T:Over the Hills and Far Away
C:Trad (arranged by Owain Kenway)
O:England
M:4/4
L:1/8
R:March
Q:1/4=130
K:G

|: "G" (GABA) (GABA)   | "C" G2 E2 E2 D2 | "G" (GABA) (GABG)   | "D" c2 A2 A2 D2   |
|"G" (GABA) (GABA)   | "C" G2 E2 c4    | "G" E2 (DC) D2 B2   | "D" c2 A2 A4      :|

[|: "G" d2 (dc) B2 (BA) | "C" G2 E2 E2 (Bc) | "G" d2 (dc) B2 (AG) | "D" c2 A2 A2 (Bc)   |
"G" d2 (dc) B2 (BA) | "C" G2 E2 c4    | "G" E2 (DC) D2 B2   | "D" c2 A2 A4      :|]
